build/img/sprites/03.svg

<svg width="65" height="32" viewBox="0 0 65 32" fill="none" xmlns="http://www.w3.org/2000/svg">
<mask id="path-1-outside-1_627_4193" maskUnits="userSpaceOnUse" x="0" y="0" width="65" height="32" fill="black">
<rect fill="white" width="65" height="32"/>
<path d="M13.84 30.64C11.36 30.64 9.16 30.0667 7.24 28.92C5.34667 27.7733 3.85333 26.1067 2.76 23.92C1.69333 21.7333 1.16 19.0933 1.16 16C1.16 12.9067 1.69333 10.2667 2.76 8.08C3.85333 5.89333 5.34667 4.22666 7.24 3.08C9.16 1.93333 11.36 1.36 13.84 1.36C16.32 1.36 18.5067 1.93333 20.4 3.08C22.32 4.22666 23.8133 5.89333 24.88 8.08C25.9733 10.2667 26.52 12.9067 26.52 16C26.52 19.0933 25.9733 21.7333 24.88 23.92C23.8133 26.1067 22.32 27.7733 20.4 28.92C18.5067 30.0667 16.32 30.64 13.84 30.64ZM13.84 23.08C14.4533 23.08 15 22.8667 15.48 22.44C15.96 22.0133 16.3333 21.28 16.6 20.24C16.8933 19.2 17.04 17.7867 17.04 16C17.04 14.1867 16.8933 12.7733 16.6 11.76C16.3333 10.72 15.96 9.98667 15.48 9.56C15 9.13333 14.4533 8.92 13.84 8.92C13.2267 8.92 12.68 9.13333 12.2 9.56C11.72 9.98667 11.3333 10.72 11.04 11.76C10.7733 12.7733 10.64 14.1867 10.64 16C10.64 17.7867 10.7733 19.2 11.04 20.24C11.3333 21.28 11.72 22.0133 12.2 22.44C12.68 22.8667 13.2267 23.08 13.84 23.08ZM38.1047 30.64C36.1847 30.64 34.238 30.4267 32.2647 30C30.2914 29.5733 28.558 28.9467 27.0647 28.12L30.2647 21.16C31.4647 21.8533 32.718 22.3733 34.0247 22.72C35.358 23.04 36.6114 23.2 37.7847 23.2C38.8514 23.2 39.718 23.0267 40.3847 22.68C41.078 22.3067 41.4247 21.76 41.4247 21.04C41.4247 20.4267 41.1714 19.96 40.6647 19.64C40.158 19.2933 39.3047 19.12 38.1047 19.12H34.3847V13.32L41.6247 5.96L42.4647 9.12H28.5047V2H49.3847V7.8L42.1447 15.16L37.6247 12.6H40.1047C43.6247 12.6 46.3047 13.3867 48.1447 14.96C49.9847 16.5333 50.9047 18.56 50.9047 21.04C50.9047 22.64 50.4514 24.1733 49.5447 25.64C48.6647 27.1067 47.278 28.3067 45.3847 29.24C43.518 30.1733 41.0914 30.64 38.1047 30.64ZM57.955 30.4C56.4617 30.4 55.2083 29.92 54.195 28.96C53.1817 27.9733 52.675 26.72 52.675 25.2C52.675 23.6533 53.1817 22.4133 54.195 21.48C55.2083 20.5467 56.4617 20.08 57.955 20.08C59.4483 20.08 60.7017 20.5467 61.715 21.48C62.7283 22.4133 63.235 23.6533 63.235 25.2C63.235 26.72 62.7283 27.9733 61.715 28.96C60.7017 29.92 59.4483 30.4 57.955 30.4Z"/>
</mask>
<path d="M7.24 28.92L6.72196 29.7754L6.72726 29.7785L7.24 28.92ZM2.76 23.92L1.86119 24.3584L1.86557 24.3672L2.76 23.92ZM2.76 8.08L1.86553 7.63276L1.86123 7.64157L2.76 8.08ZM7.24 3.08L6.72725 2.22144L6.72197 2.22464L7.24 3.08ZM20.4 3.08L19.882 3.93537L19.8873 3.93854L20.4 3.08ZM24.88 8.08L23.9812 8.51844L23.9856 8.52721L24.88 8.08ZM24.88 23.92L23.9855 23.4728L23.9812 23.4816L24.88 23.92ZM20.4 28.92L19.8873 28.0614L19.882 28.0646L20.4 28.92ZM16.6 20.24L15.6376 19.9685L15.6343 19.98L15.6313 19.9916L16.6 20.24ZM16.6 11.76L15.6313 12.0084L15.6352 12.0233L15.6394 12.0381L16.6 11.76ZM15.48 9.56L16.1444 8.81259L16.1444 8.81259L15.48 9.56ZM12.2 9.56L11.5356 8.81259V8.81259L12.2 9.56ZM11.04 11.76L10.0776 11.4885L10.0752 11.497L10.0729 11.5055L11.04 11.76ZM11.04 20.24L10.0713 20.4884L10.0743 20.5L10.0776 20.5115L11.04 20.24ZM13.84 29.64C11.5203 29.64 9.50125 29.1057 7.75274 28.0615L6.72726 29.7785C8.81876 31.0276 11.1997 31.64 13.84 31.64V29.64ZM7.75804 28.0646C6.04278 27.0258 4.67246 25.5089 3.65443 23.4728L1.86557 24.3672C3.03421 26.7045 4.65055 28.5208 6.72197 29.7754L7.75804 28.0646ZM3.65877 23.4816C2.67427 21.4634 2.16 18.9814 2.16 16H0.16C0.16 19.2053 0.712395 22.0033 1.86123 24.3584L3.65877 23.4816ZM2.16 16C2.16 13.0186 2.67427 10.5366 3.65877 8.51842L1.86123 7.64157C0.712395 9.99669 0.16 12.7947 0.16 16H2.16ZM3.65443 8.52721C4.67246 6.49114 6.04278 4.97417 7.75803 3.93536L6.72197 2.22464C4.65055 3.47916 3.03421 5.29552 1.86557 7.63278L3.65443 8.52721ZM7.75274 3.93854C9.50125 2.8943 11.5203 2.36 13.84 2.36V0.359999C11.1997 0.359999 8.81876 0.972368 6.72726 2.22145L7.75274 3.93854ZM13.84 2.36C16.1599 2.36 18.1631 2.89435 19.882 3.93536L20.918 2.22464C18.8502 0.97231 16.4801 0.359999 13.84 0.359999V2.36ZM19.8873 3.93854C21.6259 4.97688 22.9919 6.49031 23.9812 8.51842L25.7788 7.64157C24.6348 5.29635 23.0141 3.47645 20.9127 2.22146L19.8873 3.93854ZM23.9856 8.52721C24.9935 10.5431 25.52 13.0218 25.52 16H27.52C27.52 12.7915 26.9531 9.99019 25.7744 7.63278L23.9856 8.52721ZM25.52 16C25.52 18.9782 24.9935 21.4569 23.9856 23.4728L25.7744 24.3672C26.9531 22.0098 27.52 19.2085 27.52 16H25.52ZM23.9812 23.4816C22.9919 25.5097 21.6259 27.0231 19.8873 28.0615L20.9127 29.7785C23.0141 28.5235 24.6348 26.7036 25.7788 24.3584L23.9812 23.4816ZM19.882 28.0646C18.1631 29.1056 16.1599 29.64 13.84 29.64V31.64C16.4801 31.64 18.8502 31.0277 20.918 29.7754L19.882 28.0646ZM13.84 24.08C14.7106 24.08 15.4907 23.7684 16.1444 23.1874L14.8156 21.6926C14.5093 21.9649 14.1961 22.08 13.84 22.08V24.08ZM16.1444 23.1874C16.843 22.5664 17.2824 21.6049 17.5687 20.4884L15.6313 19.9916C15.3843 20.9551 15.077 21.4603 14.8156 21.6926L16.1444 23.1874ZM17.5625 20.5115C17.8916 19.3444 18.04 17.827 18.04 16H16.04C16.04 17.7464 15.8951 19.0555 15.6376 19.9685L17.5625 20.5115ZM18.04 16C18.04 14.1497 17.8922 12.6277 17.5606 11.4819L15.6394 12.0381C15.8944 12.919 16.04 14.2236 16.04 16H18.04ZM17.5687 11.5116C17.2824 10.3951 16.843 9.43364 16.1444 8.81259L14.8156 10.3074C15.077 10.5397 15.3843 11.0449 15.6313 12.0084L17.5687 11.5116ZM16.1444 8.81259C15.4907 8.23159 14.7106 7.92 13.84 7.92V9.92C14.1961 9.92 14.5093 10.0351 14.8156 10.3074L16.1444 8.81259ZM13.84 7.92C12.9694 7.92 12.1893 8.23159 11.5356 8.81259L12.8644 10.3074C13.1707 10.0351 13.4839 9.92 13.84 9.92V7.92ZM11.5356 8.81259C10.8456 9.42599 10.3912 10.3765 10.0776 11.4885L12.0025 12.0315C12.2755 11.0635 12.5944 10.5473 12.8644 10.3074L11.5356 8.81259ZM10.0729 11.5055C9.77415 12.6409 9.64 14.1535 9.64 16H11.64C11.64 14.2198 11.7725 12.9058 12.0071 12.0145L10.0729 11.5055ZM9.64 16C9.64 17.8229 9.77468 19.3314 10.0713 20.4884L12.0087 19.9916C11.772 19.0686 11.64 17.7504 11.64 16H9.64ZM10.0776 20.5115C10.3912 21.6235 10.8456 22.574 11.5356 23.1874L12.8644 21.6926C12.5944 21.4527 12.2755 20.9365 12.0025 19.9685L10.0776 20.5115ZM11.5356 23.1874C12.1893 23.7684 12.9694 24.08 13.84 24.08V22.08C13.4839 22.08 13.1707 21.9649 12.8644 21.6926L11.5356 23.1874ZM32.2647 30L32.0534 30.9774L32.2647 30ZM27.0647 28.12L26.1561 27.7023L25.7685 28.5454L26.5804 28.9949L27.0647 28.12ZM30.2647 21.16L30.765 20.2941L29.8146 19.745L29.3561 20.7423L30.2647 21.16ZM34.0247 22.72L33.7683 23.6866L33.7798 23.6896L33.7913 23.6924L34.0247 22.72ZM40.3847 22.68L40.846 23.5672L40.8524 23.5639L40.8588 23.5605L40.3847 22.68ZM40.6647 19.64L40.1 20.4653L40.1152 20.4757L40.1307 20.4855L40.6647 19.64ZM34.3847 19.12H33.3847V20.12H34.3847V19.12ZM34.3847 13.32L33.6718 12.6187L33.3847 12.9106V13.32H34.3847ZM41.6247 5.96L42.5911 5.7031L42.1409 4.00928L40.9118 5.25873L41.6247 5.96ZM42.4647 9.12V10.12H43.7652L43.4311 8.8631L42.4647 9.12ZM28.5047 9.12H27.5047V10.12H28.5047V9.12ZM28.5047 2V0.999998H27.5047V2H28.5047ZM49.3847 2H50.3847V0.999998H49.3847V2ZM49.3847 7.8L50.0976 8.50127L50.3847 8.20941V7.8H49.3847ZM42.1447 15.16L41.6519 16.0301L42.3195 16.4083L42.8576 15.8613L42.1447 15.16ZM37.6247 12.6V11.6H33.8299L37.1319 13.4701L37.6247 12.6ZM49.5447 25.64L48.694 25.1141L48.6872 25.1255L49.5447 25.64ZM45.3847 29.24L44.9425 28.343L44.9375 28.3456L45.3847 29.24ZM38.1047 29.64C36.2593 29.64 34.3835 29.435 32.476 29.0226L32.0534 30.9774C34.0926 31.4183 36.1101 31.64 38.1047 31.64V29.64ZM32.476 29.0226C30.5813 28.6129 28.9429 28.0167 27.549 27.2451L26.5804 28.9949C28.1731 29.8766 30.0014 30.5338 32.0534 30.9774L32.476 29.0226ZM27.9733 28.5377L31.1733 21.5777L29.3561 20.7423L26.1561 27.7023L27.9733 28.5377ZM29.7644 22.0259C31.0389 22.7623 32.3741 23.3167 33.7683 23.6866L34.2811 21.7534C33.062 21.43 31.8904 20.9444 30.765 20.2941L29.7644 22.0259ZM33.7913 23.6924C35.1886 24.0277 36.5209 24.2 37.7847 24.2V22.2C36.7018 22.2 35.5274 22.0523 34.2581 21.7476L33.7913 23.6924ZM37.7847 24.2C38.9488 24.2 39.9898 24.0125 40.846 23.5672L39.9233 21.7928C39.4463 22.0409 38.7539 22.2 37.7847 22.2V24.2ZM40.8588 23.5605C41.324 23.31 41.7261 22.972 42.0092 22.5255C42.2953 22.0744 42.4247 21.5677 42.4247 21.04H40.4247C40.4247 21.2323 40.3808 21.3589 40.3202 21.4545C40.2566 21.5547 40.1388 21.6767 39.9106 21.7995L40.8588 23.5605ZM42.4247 21.04C42.4247 20.0933 42.0036 19.3029 41.1987 18.7945L40.1307 20.4855C40.3391 20.6171 40.4247 20.76 40.4247 21.04H42.4247ZM41.2294 18.8147C40.4603 18.2885 39.345 18.12 38.1047 18.12V20.12C39.2643 20.12 39.8558 20.2982 40.1 20.4653L41.2294 18.8147ZM38.1047 18.12H34.3847V20.12H38.1047V18.12ZM35.3847 19.12V13.32H33.3847V19.12H35.3847ZM35.0976 14.0213L42.3376 6.66127L40.9118 5.25873L33.6718 12.6187L35.0976 14.0213ZM40.6582 6.2169L41.4982 9.3769L43.4311 8.8631L42.5911 5.7031L40.6582 6.2169ZM42.4647 8.12H28.5047V10.12H42.4647V8.12ZM29.5047 9.12V2H27.5047V9.12H29.5047ZM28.5047 3H49.3847V0.999998H28.5047V3ZM48.3847 2V7.8H50.3847V2H48.3847ZM48.6718 7.09873L41.4318 14.4587L42.8576 15.8613L50.0976 8.50127L48.6718 7.09873ZM42.6375 14.2899L38.1175 11.7299L37.1319 13.4701L41.6519 16.0301L42.6375 14.2899ZM37.6247 13.6H40.1047V11.6H37.6247V13.6ZM40.1047 13.6C43.4922 13.6 45.9027 14.3587 47.4948 15.72L48.7946 14.2C46.7066 12.4146 43.7572 11.6 40.1047 11.6V13.6ZM47.4948 15.72C49.1065 17.0981 49.9047 18.8441 49.9047 21.04H51.9047C51.9047 18.2759 50.8629 15.9686 48.7946 14.2L47.4948 15.72ZM49.9047 21.04C49.9047 22.4398 49.511 23.7927 48.6941 25.1142L50.3953 26.1658C51.3917 24.5539 51.9047 22.8402 51.9047 21.04H49.9047ZM48.6872 25.1255C47.9269 26.3926 46.704 27.4747 44.9425 28.3431L45.8268 30.1369C47.852 29.1386 49.4025 27.8207 50.4022 26.1545L48.6872 25.1255ZM44.9375 28.3456C43.2564 29.1861 40.9985 29.64 38.1047 29.64V31.64C41.1842 31.64 43.7797 31.1605 45.8319 30.1344L44.9375 28.3456ZM54.195 28.96L53.4973 29.6765L53.5073 29.686L54.195 28.96ZM54.195 21.48L53.5175 20.7445V20.7445L54.195 21.48ZM61.715 21.48L62.3925 20.7445V20.7445L61.715 21.48ZM61.715 28.96L62.4028 29.686L62.4126 29.6765L61.715 28.96ZM57.955 29.4C56.6979 29.4 55.6966 29.005 54.8827 28.234L53.5073 29.686C54.7201 30.835 56.2254 31.4 57.955 31.4V29.4ZM54.8926 28.2435C54.0881 27.4602 53.675 26.4725 53.675 25.2H51.675C51.675 26.9675 52.2752 28.4865 53.4974 29.6765L54.8926 28.2435ZM53.675 25.2C53.675 23.8949 54.0911 22.9353 54.8725 22.2155L53.5175 20.7445C52.2723 21.8914 51.675 23.4118 51.675 25.2H53.675ZM54.8725 22.2155C55.685 21.4672 56.6897 21.08 57.955 21.08V19.08C56.2336 19.08 54.7317 19.6261 53.5175 20.7445L54.8725 22.2155ZM57.955 21.08C59.2203 21.08 60.225 21.4672 61.0375 22.2155L62.3925 20.7445C61.1783 19.6261 59.6764 19.08 57.955 19.08V21.08ZM61.0375 22.2155C61.8189 22.9353 62.235 23.8949 62.235 25.2H64.235C64.235 23.4118 63.6377 21.8914 62.3925 20.7445L61.0375 22.2155ZM62.235 25.2C62.235 26.4725 61.8219 27.4602 61.0174 28.2435L62.4126 29.6765C63.6348 28.4865 64.235 26.9675 64.235 25.2H62.235ZM61.0273 28.234C60.2134 29.005 59.2121 29.4 57.955 29.4V31.4C59.6846 31.4 61.1899 30.835 62.4027 29.686L61.0273 28.234Z" fill="#78213A" mask="url(#path-1-outside-1_627_4193)"/>
</svg>

<svg width="65" height="32" viewBox="0 0 65 32" fill="none" xmlns="http://www.w3.org/2000/svg"><mask id="path-1-outside-1_627_4193" maskUnits="userSpaceOnUse" x="0" y="0" width="65" height="32" fill="#000"><path fill="#fff" d="M0 0h65v32H0z"/><path d="M13.84 30.64c-2.48 0-4.68-.573-6.6-1.72-1.893-1.147-3.387-2.813-4.48-5-1.067-2.187-1.6-4.827-1.6-7.92s.533-5.733 1.6-7.92c1.093-2.187 2.587-3.853 4.48-5 1.92-1.147 4.12-1.72 6.6-1.72 2.48 0 4.667.573 6.56 1.72 1.92 1.147 3.413 2.813 4.48 5 1.093 2.187 1.64 4.827 1.64 7.92s-.547 5.733-1.64 7.92c-1.067 2.187-2.56 3.853-4.48 5-1.893 1.147-4.08 1.72-6.56 1.72zm0-7.56c.613 0 1.16-.213 1.64-.64.48-.427.853-1.16 1.12-2.2.293-1.04.44-2.453.44-4.24 0-1.813-.147-3.227-.44-4.24-.267-1.04-.64-1.773-1.12-2.2-.48-.427-1.027-.64-1.64-.64s-1.16.213-1.64.64c-.48.427-.867 1.16-1.16 2.2-.267 1.013-.4 2.427-.4 4.24 0 1.787.133 3.2.4 4.24.293 1.04.68 1.773 1.16 2.2.48.427 1.027.64 1.64.64zm24.265 7.56c-1.92 0-3.867-.213-5.84-.64-1.974-.427-3.707-1.053-5.2-1.88l3.2-6.96c1.2.693 2.453 1.213 3.76 1.56 1.333.32 2.586.48 3.76.48 1.066 0 1.933-.173 2.6-.52.693-.373 1.04-.92 1.04-1.64 0-.613-.254-1.08-.76-1.4-.507-.347-1.36-.52-2.56-.52h-3.72v-5.8l7.24-7.36.84 3.16h-13.96V2h20.88v5.8l-7.24 7.36-4.52-2.56h2.48c3.52 0 6.2.787 8.04 2.36 1.84 1.573 2.76 3.6 2.76 6.08 0 1.6-.454 3.133-1.36 4.6-.88 1.467-2.267 2.667-4.16 3.6-1.867.933-4.294 1.4-7.28 1.4zm19.85-.24c-1.493 0-2.747-.48-3.76-1.44-1.013-.987-1.52-2.24-1.52-3.76 0-1.547.507-2.787 1.52-3.72 1.013-.933 2.267-1.4 3.76-1.4 1.493 0 2.747.467 3.76 1.4 1.013.933 1.52 2.173 1.52 3.72 0 1.52-.507 2.773-1.52 3.76-1.013.96-2.267 1.44-3.76 1.44z"/></mask><path d="M7.24 28.92l-.518.855.005.004.513-.859zm-4.48-5l-.899.438.005.01.894-.448zm0-15.84l-.894-.447-.005.009.899.438zm4.48-5l-.513-.859-.005.004.518.855zm13.16 0l-.518.855.005.004.513-.859zm4.48 5l-.899.438.005.01.894-.448zm0 15.84l-.895-.447-.004.009.899.438zm-4.48 5l-.513-.859-.005.004.518.855zm-3.8-8.68l-.962-.271-.004.011-.003.012.969.248zm0-8.48l-.969.248.004.015.004.015.961-.278zm-1.12-2.2l.664-.747-.664.747zm-3.28 0l-.664-.747.664.747zm-1.16 2.2l-.962-.271-.003.008-.002.008.967.255zm0 8.48l-.969.248.003.012.004.012.962-.272zm2.8 9.4c-2.32 0-4.339-.534-6.087-1.579L6.727 29.78c2.093 1.247 4.473 1.86 7.113 1.86v-2zm-6.082-1.575c-1.715-1.04-3.086-2.556-4.104-4.592l-1.788.894c1.168 2.337 2.785 4.154 4.856 5.408l1.036-1.71zm-4.1-4.583C2.675 21.463 2.16 18.982 2.16 16h-2c0 3.205.552 6.003 1.701 8.358l1.798-.876zM2.16 16c0-2.981.514-5.463 1.499-7.482L1.86 7.642C.712 9.997.16 12.795.16 16h2zm1.494-7.473c1.018-2.036 2.389-3.553 4.104-4.592l-1.036-1.71c-2.071 1.254-3.688 3.07-4.856 5.408l1.788.894zM7.753 3.94C9.5 2.894 11.52 2.36 13.84 2.36v-2c-2.64 0-5.021.612-7.113 1.861L7.753 3.94zm6.087-1.58c2.32 0 4.323.534 6.042 1.575l1.036-1.71C18.85.972 16.48.36 13.84.36v2zm6.047 1.579c1.739 1.038 3.105 2.551 4.094 4.58l1.798-.877c-1.144-2.346-2.765-4.166-4.866-5.42l-1.026 1.717zm4.099 4.588c1.008 2.016 1.534 4.495 1.534 7.473h2c0-3.209-.567-6.01-1.746-8.367l-1.788.894zM25.52 16c0 2.978-.526 5.457-1.534 7.473l1.788.894c1.18-2.357 1.746-5.159 1.746-8.367h-2zm-1.539 7.482c-.99 2.028-2.355 3.541-4.094 4.58l1.026 1.716c2.101-1.255 3.722-3.074 4.866-5.42l-1.798-.876zm-4.099 4.583c-1.719 1.04-3.722 1.575-6.042 1.575v2c2.64 0 5.01-.612 7.078-1.865l-1.036-1.71zM13.84 24.08c.87 0 1.65-.312 2.304-.893l-1.328-1.494c-.307.272-.62.387-.976.387v2zm2.304-.893c.699-.62 1.138-1.582 1.425-2.699l-1.938-.496c-.247.963-.554 1.468-.815 1.7l1.328 1.495zm1.419-2.675c.329-1.168.477-2.685.477-4.512h-2c0 1.746-.145 3.055-.402 3.968l1.925.544zM18.04 16c0-1.85-.148-3.372-.48-4.518l-1.92.556c.254.881.4 2.186.4 3.962h2zm-.471-4.488c-.287-1.117-.726-2.078-1.425-2.7l-1.328 1.495c.261.233.568.738.815 1.701l1.938-.496zm-1.425-2.7c-.653-.58-1.433-.892-2.304-.892v2c.356 0 .67.115.976.387l1.328-1.494zM13.84 7.92c-.87 0-1.65.312-2.304.893l1.328 1.494c.307-.272.62-.387.976-.387v-2zm-2.304.893c-.69.613-1.145 1.563-1.458 2.675l1.925.543c.272-.968.591-1.484.861-1.724l-1.328-1.494zm-1.463 2.692C9.774 12.641 9.64 14.153 9.64 16h2c0-1.78.133-3.094.367-3.986l-1.934-.508zM9.64 16c0 1.823.135 3.331.431 4.488l1.938-.496c-.237-.923-.369-2.242-.369-3.992h-2zm.438 4.512c.313 1.111.768 2.062 1.458 2.675l1.328-1.494c-.27-.24-.589-.757-.862-1.725l-1.924.544zm1.458 2.675c.653.581 1.433.893 2.304.893v-2c-.356 0-.67-.115-.976-.387l-1.328 1.494zM32.265 30l-.212.977.212-.977zm-5.2-1.88l-.909-.418-.387.843.811.45.485-.875zm3.2-6.96l.5-.866-.95-.549-.459.997.909.418zm3.76 1.56l-.257.967.012.003.011.002.234-.972zm6.36-.04l.461.887.006-.003.007-.003-.474-.881zm.28-3.04l-.565.825.015.01.016.01.534-.845zm-6.28-.52h-1v1h1v-1zm0-5.8l-.713-.701-.287.292v.409h1zm7.24-7.36l.966-.257-.45-1.694-1.23 1.25.714.701zm.84 3.16v1h1.3l-.334-1.257-.966.257zm-13.96 0h-1v1h1v-1zm0-7.12V1h-1v1h1zm20.88 0h1V1h-1v1zm0 5.8l.713.701.287-.292V7.8h-1zm-7.24 7.36l-.493.87.667.378.539-.547-.713-.701zm-4.52-2.56v-1H33.83l3.302 1.87.493-.87zm11.92 13.04l-.851-.526-.007.011.858.515zm-4.16 3.6l-.442-.897-.005.003.447.894zm-7.28.4a26.58 26.58 0 01-5.629-.617l-.423 1.954a28.58 28.58 0 006.052.663v-2zm-5.629-.617c-1.895-.41-3.533-1.006-4.927-1.778l-.969 1.75c1.593.882 3.421 1.539 5.473 1.982l.423-1.954zm-4.503-.485l3.2-6.96-1.817-.836-3.2 6.96 1.817.836zm1.791-6.512c1.275.736 2.61 1.29 4.004 1.66l.513-1.933a14.361 14.361 0 01-3.516-1.459l-1 1.732zm4.027 1.666c1.398.336 2.73.508 3.994.508v-2c-1.083 0-2.258-.148-3.527-.452l-.467 1.944zm3.994.508c1.164 0 2.205-.188 3.061-.633l-.923-1.774c-.477.248-1.17.407-2.138.407v2zm3.074-.64c.465-.25.867-.588 1.15-1.034.286-.452.416-.958.416-1.486h-2a.741.741 0 01-.105.415c-.063.1-.181.222-.41.345l.949 1.76zm1.566-2.52c0-.947-.421-1.737-1.226-2.245l-1.068 1.69c.208.132.294.275.294.555h2zm-1.196-2.225c-.769-.527-1.884-.695-3.124-.695v2c1.16 0 1.75.178 1.995.345l1.13-1.65zm-3.124-.695h-3.72v2h3.72v-2zm-2.72 1v-5.8h-2v5.8h2zm-.287-5.099l7.24-7.36-1.426-1.402-7.24 7.36 1.426 1.402zm5.56-7.804l.84 3.16 1.933-.514-.84-3.16-1.933.514zm1.807 1.903h-13.96v2h13.96v-2zm-12.96 1V2h-2v7.12h2zm-1-6.12h20.88V1h-20.88v2zm19.88-1v5.8h2V2h-2zm.287 5.099l-7.24 7.36 1.426 1.402 7.24-7.36L48.672 7.1zm-6.034 7.19l-4.52-2.56-.986 1.741 4.52 2.56.986-1.74zm-5.013-.689h2.48v-2h-2.48v2zm2.48 0c3.387 0 5.798.759 7.39 2.12l1.3-1.52c-2.088-1.785-5.038-2.6-8.69-2.6v2zm7.39 2.12c1.611 1.378 2.41 3.124 2.41 5.32h2c0-2.764-1.042-5.071-3.11-6.84l-1.3 1.52zm2.41 5.32c0 1.4-.394 2.753-1.21 4.074l1.7 1.052c.997-1.612 1.51-3.326 1.51-5.126h-2zm-1.218 4.085c-.76 1.268-1.983 2.35-3.744 3.218l.884 1.794c2.025-.998 3.576-2.316 4.575-3.983l-1.715-1.029zm-3.75 3.22c-1.68.841-3.938 1.295-6.832 1.295v2c3.08 0 5.675-.48 7.727-1.506l-.895-1.788zm9.258.615l-.698.716.01.01.688-.726zm0-7.48l-.678-.736.678.736zm7.52 0l.677-.736-.677.736zm0 7.48l.688.726.01-.01-.698-.716zm-3.76.44c-1.257 0-2.258-.395-3.072-1.166l-1.376 1.452c1.213 1.149 2.718 1.714 4.448 1.714v-2zm-3.062-1.156c-.805-.784-1.218-1.771-1.218-3.044h-2c0 1.768.6 3.287 1.822 4.477l1.396-1.433zM53.675 25.2c0-1.305.416-2.265 1.198-2.985l-1.355-1.47c-1.246 1.146-1.843 2.667-1.843 4.455h2zm1.198-2.985c.812-.748 1.817-1.135 3.082-1.135v-2c-1.721 0-3.223.546-4.438 1.665l1.355 1.47zm3.082-1.135c1.265 0 2.27.387 3.083 1.136l1.355-1.472c-1.215-1.118-2.717-1.664-4.438-1.664v2zm3.083 1.136c.78.72 1.197 1.679 1.197 2.984h2c0-1.788-.597-3.309-1.843-4.456l-1.355 1.471zm1.197 2.984c0 1.273-.413 2.26-1.218 3.044l1.396 1.433c1.222-1.19 1.822-2.71 1.822-4.477h-2zm-1.208 3.034c-.814.771-1.815 1.166-3.072 1.166v2c1.73 0 3.235-.565 4.448-1.714l-1.376-1.452z" fill="#78213A" mask="url(#path-1-outside-1_627_4193)"/></svg>
